src/images/svg/symbols/markets-stocks-and-indices/american-stocks/stocks-uber-technologies-inc.svg

<svg width="32" height="32" viewBox="0 0 32 32" fill="none" xmlns="http://www.w3.org/2000/svg">
<path d="M0 16C0 7.16344 7.16344 0 16 0C24.8366 0 32 7.16344 32 16C32 24.8366 24.8366 32 16 32C7.16344 32 0 24.8366 0 16Z" fill="#F2F3F4"/>
<path fill-rule="evenodd" clip-rule="evenodd" d="M12.5999 14.8308V11.8308L11.4199 11.8008V20.0008H12.6399V19.2808C12.9139 19.554 13.236 19.7743 13.5899 19.9308C13.9623 20.0916 14.3642 20.1733 14.7699 20.1708C15.1925 20.1711 15.6109 20.086 15.9999 19.9208C16.7478 19.6056 17.3457 19.0148 17.6699 18.2708C17.8328 17.8884 17.9145 17.4764 17.9099 17.0608C17.9126 16.6454 17.8309 16.2337 17.6699 15.8508C17.5164 15.4756 17.2885 15.1354 16.9999 14.8508C16.711 14.5673 16.3719 14.3401 15.9999 14.1808C15.6102 14.0189 15.1918 13.9373 14.7699 13.9408C14.3673 13.9372 13.9685 14.019 13.5999 14.1808C13.2282 14.3318 12.8888 14.5524 12.5999 14.8308ZM13.1699 18.4908C12.986 18.3 12.8401 18.076 12.7399 17.8308C12.5265 17.3119 12.5265 16.7297 12.7399 16.2108C12.8473 15.9646 12.9999 15.7407 13.1899 15.5508C13.3786 15.3582 13.6044 15.2057 13.8536 15.1026C14.1027 14.9995 14.3702 14.9479 14.6399 14.9508C14.9115 14.9476 15.1808 15.0022 15.4299 15.1108C15.6735 15.2131 15.8944 15.3626 16.0799 15.5508C16.2667 15.7411 16.416 15.9651 16.5199 16.2108C16.7332 16.7297 16.7332 17.3119 16.5199 17.8308C16.4204 18.0774 16.2728 18.3017 16.0856 18.4906C15.8985 18.6794 15.6755 18.8291 15.4299 18.9308C15.1808 19.0394 14.9115 19.0939 14.6399 19.0908C14.3617 19.0944 14.0858 19.0399 13.8299 18.9308C13.5861 18.8233 13.3628 18.6744 13.1699 18.4908Z" fill="#0E0E0E"/>
<path d="M5.79989 18.4708C5.61441 18.2717 5.4715 18.037 5.37989 17.7808C5.27587 17.4958 5.22503 17.1941 5.22989 16.8908V11.8308H3.99989V17.0008C3.98604 17.4288 4.05043 17.8558 4.18989 18.2608C4.34161 18.6345 4.56593 18.9744 4.84989 19.2608C5.13186 19.5477 5.47316 19.7696 5.84989 19.9108C6.23814 20.0647 6.65226 20.1427 7.06989 20.1408C7.48213 20.1441 7.89063 20.0624 8.26989 19.9008C8.64756 19.752 8.98866 19.5235 9.26989 19.2308V20.0008H10.4499V11.8308H9.21989V16.8908C9.22385 17.1941 9.17304 17.4956 9.06989 17.7808C8.97619 18.0353 8.82964 18.267 8.63989 18.4608C8.45826 18.6515 8.24077 18.8044 7.99989 18.9108C7.75899 19.0118 7.50107 19.0661 7.23989 19.0708C6.96489 19.0748 6.6922 19.0202 6.43989 18.9108C6.19494 18.8165 5.97568 18.6657 5.79989 18.4708Z" fill="#0E0E0E"/>
<path fill-rule="evenodd" clip-rule="evenodd" d="M18.5199 15.8508C18.6674 15.4773 18.8884 15.1373 19.1699 14.8508C19.4498 14.5566 19.7913 14.3278 20.1699 14.1808C20.5504 14.0109 20.9632 13.9256 21.3799 13.9308C21.791 13.9289 22.1986 14.007 22.5799 14.1608C22.9378 14.3155 23.2611 14.5403 23.5308 14.8219C23.8004 15.1036 24.0109 15.4364 24.1499 15.8008C24.2821 16.1868 24.3464 16.5928 24.3399 17.0008V17.3908H19.4799C19.5192 17.6267 19.6004 17.8536 19.7199 18.0608C19.829 18.2655 19.9748 18.4485 20.1499 18.6008C20.3301 18.7509 20.5325 18.8724 20.7499 18.9608C21.1819 19.1121 21.651 19.1209 22.0884 18.9859C22.5257 18.8509 22.9083 18.5792 23.1799 18.2108L24.0299 18.8408C23.7442 19.2355 23.3666 19.5547 22.9299 19.7708C22.4755 20.0038 21.9704 20.1207 21.4599 20.1108C21.0321 20.1177 20.6072 20.0395 20.2099 19.8808C19.8355 19.7303 19.4954 19.5058 19.2099 19.2208C18.9215 18.9339 18.6907 18.5944 18.5299 18.2208C18.2167 17.4411 18.2167 16.5705 18.5299 15.7908L18.5199 15.8508ZM20.1699 15.3908C19.8272 15.6699 19.5906 16.0582 19.4999 16.4908H23.1399C23.0607 16.0586 22.8303 15.6686 22.4899 15.3908C22.1644 15.1191 21.7538 14.9702 21.3299 14.9702C20.9059 14.9702 20.4953 15.1191 20.1699 15.3908Z" fill="#0E0E0E"/>
<path d="M26.1699 16.6308C26.1483 16.2256 26.2845 15.8278 26.5499 15.5208C26.67 15.3855 26.818 15.2778 26.9837 15.2053C27.1495 15.1328 27.329 15.0971 27.5099 15.1008H27.9999V14.0008H27.5899C27.31 13.9875 27.0315 14.0479 26.7823 14.176C26.5331 14.3041 26.3219 14.4954 26.1699 14.7308V14.0008H24.9999V20.0008H26.1699V16.6308Z" fill="#0E0E0E"/>
</svg>

<svg xmlns="http://www.w3.org/2000/svg" width="32" height="32"><g fill="none" fill-rule="evenodd"><path d="M0 0h32v32H0z"/><path fill="#000" fill-rule="nonzero" d="M0 4c0-2.21 1.79-4 4-4h24c2.21 0 4 1.79 4 4v24c0 2.21-1.79 4-4 4H4c-2.21 0-4-1.79-4-4V4z"/><path fill="#FFF" d="M12.6 14.83v-3l-1.18-.03V20h1.22v-.72c.274.273.596.494.95.65.372.16.774.243 1.18.24a3.159 3.159 0 0 0 2.9-1.9c.163-.382.244-.794.24-1.21a3.085 3.085 0 0 0-.24-1.21 3.022 3.022 0 0 0-.67-1 3.283 3.283 0 0 0-1-.67 3.146 3.146 0 0 0-1.23-.24 2.854 2.854 0 0 0-1.17.24 3.154 3.154 0 0 0-1 .65zm.57 3.66a2.133 2.133 0 0 1-.43-2.28c.107-.246.26-.47.45-.66a1.987 1.987 0 0 1 1.45-.6c.271-.003.54.051.79.16a2 2 0 0 1 .65.44c.187.19.336.414.44.66a2.133 2.133 0 0 1 0 1.62 2.009 2.009 0 0 1-1.09 1.1c-.25.109-.518.163-.79.16a1.979 1.979 0 0 1-.81-.16 2.288 2.288 0 0 1-.66-.44zm-7.37-.02a1.984 1.984 0 0 1-.42-.69 2.479 2.479 0 0 1-.15-.89v-5.06H4V17c-.014.428.05.855.19 1.26.152.374.376.714.66 1 .282.287.623.509 1 .65.388.154.802.232 1.22.23.412.003.82-.078 1.2-.24a2.814 2.814 0 0 0 1-.67V20h1.18v-8.17H9.22v5.06c.004.303-.047.605-.15.89-.094.255-.24.486-.43.68-.182.19-.4.344-.64.45a2.069 2.069 0 0 1-.76.16 1.93 1.93 0 0 1-.8-.16 1.667 1.667 0 0 1-.64-.44zm12.72-2.62c.147-.373.368-.713.65-1 .28-.294.621-.523 1-.67.38-.17.793-.255 1.21-.25.411-.002.819.076 1.2.23a2.923 2.923 0 0 1 1.57 1.641c.132.385.196.791.19 1.2v.39h-4.86c.04.235.12.462.24.67.109.204.255.387.43.54.18.15.383.27.6.36a2.14 2.14 0 0 0 2.43-.751l.85.63a2.997 2.997 0 0 1-1.1.93 3.09 3.09 0 0 1-1.47.34 3.22 3.22 0 0 1-1.25-.23 2.98 2.98 0 0 1-1-.66 3.179 3.179 0 0 1-.68-1 3.262 3.262 0 0 1 0-2.43l-.01.06zm1.65-.46c-.343.28-.58.668-.67 1.1h3.64a1.857 1.857 0 0 0-.65-1.1 1.809 1.809 0 0 0-2.32 0zm6 1.24a1.565 1.565 0 0 1 .38-1.11 1.244 1.244 0 0 1 .96-.42H28V14h-.41a1.602 1.602 0 0 0-1.42.73V14H25v6h1.17v-3.37z"/></g></svg>
